X: 1
T: the Dawning of the Day
C: trad. Irish
O: arr. Tom Morley
S: Rustic Roots collection
R: march (also played as a waltz)
Z: 2020 John Chambers <jc:trillian.mit.edu>
M: 4/4
L: 1/8
K: D
(DE) |\
"D"F2F2 F2(DE) | "D"A2A2 "G"B2(AF) | "D"D2E2 "A"D2D2 | "D"D6 A2   |
"G"B3A  B2d2   | "D"F3E     D2F2   | "D"A2F2    d2F2 | "A"E6 A2  ||
"G"B3A  B2d2   | "D"F3E     D2F2   | "D"A2F2    d2F2 | "A"E6 (DE) |
"D"F2F2 F2(DE) | "D"A2A2 "G"B2(AF) | "D"D2F2 "A"E2D2 | "D"D6     |]
